X: 36649
T: Shannon's Favourite
R: strathspey
M: 4/4
K: Amajor
(3agf|:e<c c2 e<c c2|B>AB>c d2cd|e<c c2 e<c c2|1 B>AB>c A2c>d:|2 B>AB>c A2E>G||
|:A2c>e a2a2|f2 f2 e2 e2|f2 f2 e2 e2|1 B>AB>c d2BA:|2 B>AB>c A2||

